icons/sonarqube-light.svg

<svg width="256" height="256" viewBox="0 0 256 256" fill="none" xmlns="http://www.w3.org/2000/svg">
<path d="M196 0H60C26.8629 0 0 26.8629 0 60V196C0 229.137 26.8629 256 60 256H196C229.137 256 256 229.137 256 196V60C256 26.8629 229.137 0 196 0Z" fill="#F4F2ED"/>
<path d="M188.302 114.905C188.369 99.4094 185.458 84.0451 179.727 69.6477C178.541 70.1339 177.687 70.5848 177.071 70.8931C175.809 71.5473 174.777 72.5714 174.114 73.8283C173.45 75.0855 173.187 76.515 173.358 77.9259C174.087 84.2252 174.46 90.5607 174.473 96.9018C174.473 125.888 165.116 153.687 148.12 175.178C132.05 195.494 110.489 208.563 87.0415 212.299L87.2429 212.418C94.0132 216.263 101.621 218.396 109.403 218.629C117.186 218.863 124.907 217.191 131.896 213.758C164.985 197.534 188.302 159.333 188.302 114.905Z" fill="#FD3456"/>
<path d="M194.766 66.6949C192.71 66.6385 190.654 66.7695 188.622 67.0859C194.567 82.3253 197.588 98.5479 197.529 114.905C197.529 164.717 169.777 208.92 129.263 225.037C131.303 225.168 133.367 225.251 135.442 225.251H135.751C145.404 225.208 154.927 223.015 163.627 218.832C172.327 214.649 179.987 208.581 186.049 201.068C201.561 181.867 211.085 156 211.085 127.643C211.232 106.228 205.594 85.171 194.766 66.6949Z" fill="#FD3456"/>
<path d="M233 127.643C233.016 114.802 230.489 102.084 225.564 90.225C223.421 84.9006 220.231 80.0609 216.183 75.9931C214.01 73.8019 211.528 71.9401 208.818 70.4663C208.13 70.1106 207.43 69.7901 206.754 69.4939C215.704 87.5548 220.329 107.451 220.262 127.608C220.262 156.427 210.869 184.191 194.17 205.492C206.233 196.413 216.02 184.654 222.759 171.143C229.498 157.633 233.004 142.741 233 127.643Z" fill="#FD3456"/>
<path d="M205.463 59.6499C196.386 50.2637 185.514 42.8011 173.492 37.707C161.47 32.613 148.545 29.9919 135.489 30C81.5494 30 37.3473 74.6884 37.8928 128.628C38.0092 141.416 40.6492 154.055 45.6612 165.82C44.0537 165.607 42.4304 165.535 40.8103 165.607C36.434 165.809 30.2432 164.231 27.4443 163.449C24.6453 162.666 22.1429 164.907 23.2814 167.516V167.599C32.971 189.789 54.4493 204.235 74.9551 204.187C76.318 204.187 77.6799 204.116 79.035 203.974C127.056 200.321 165.162 153.7 165.162 96.9141C165.162 93.3321 165.008 89.7744 164.7 86.2402C164.663 85.8138 164.497 85.4088 164.224 85.0787C163.952 84.749 163.585 84.5095 163.174 84.3927C162.762 84.2755 162.325 84.2864 161.92 84.4236C161.514 84.5606 161.16 84.8178 160.904 85.1609C147.621 102.737 127.946 133.644 103.336 117.539C93.8483 111.36 88.7957 98.0643 91.6541 84.5321C96.7776 60.2311 125.099 44.2083 137.576 49.2369C138.548 49.6283 142.059 51.0277 143.257 54.2299C145.083 59.1162 139.58 63.1369 136.769 71.7944C133.745 81.164 135.453 91.0908 137.576 91.5296C139.948 92.004 143.921 83.3105 153.718 75.3999C160.833 69.6717 166.194 68.0588 169.562 61.9746C172.812 56.0445 167.024 49.7943 168.993 49.2369C170.962 48.6795 172.8 55.5108 178.659 58.9028C183.557 61.7493 187.922 59.9701 194.362 59.7092C196.745 59.6922 199.125 59.8747 201.477 60.2548C201.477 60.2548 202.735 60.4327 204.727 60.8478C204.879 60.887 205.04 60.8763 205.186 60.8174C205.332 60.7585 205.455 60.6544 205.537 60.5204C205.619 60.3864 205.657 60.2295 205.643 60.0729C205.63 59.9162 205.566 59.768 205.463 59.6499ZM132.713 134.889C133.789 133.448 135.385 132.482 137.161 132.198C137.931 132.088 138.715 132.136 139.465 132.34C140.216 132.544 140.917 132.899 141.525 133.383C143.897 135.577 143.198 139.823 141.158 142.267C139.26 144.52 135.524 146.002 132.927 144.33C132.203 143.77 131.619 143.051 131.22 142.228C130.821 141.405 130.618 140.501 130.626 139.586C130.701 137.813 131.447 136.134 132.713 134.889Z" fill="#290042"/>
</svg>

<svg xmlns="http://www.w3.org/2000/svg" width="256" height="256" fill="none"><path fill="#F4F2ED" d="M196 0H60C26.863 0 0 26.863 0 60v136c0 33.137 26.863 60 60 60h136c33.137 0 60-26.863 60-60V60c0-33.137-26.863-60-60-60"/><path fill="#FD3456" d="M188.302 114.905a121 121 0 0 0-8.575-45.257c-1.186.486-2.04.937-2.656 1.245a6.97 6.97 0 0 0-3.713 7.033c.729 6.3 1.102 12.635 1.115 18.976 0 28.986-9.357 56.785-26.353 78.276-16.07 20.316-37.631 33.385-61.079 37.121l.202.119a47.77 47.77 0 0 0 44.653 1.34c33.089-16.224 56.406-54.425 56.406-98.853"/><path fill="#FD3456" d="M194.766 66.695a34 34 0 0 0-6.144.39 130.3 130.3 0 0 1 8.907 47.82c0 49.812-27.752 94.015-68.266 110.132 2.04.131 4.104.214 6.179.214h.309a65 65 0 0 0 50.298-24.183c15.512-19.201 25.036-45.068 25.036-73.425a118.9 118.9 0 0 0-16.319-60.948"/><path fill="#FD3456" d="M233 127.643a97.3 97.3 0 0 0-7.436-37.418 42.9 42.9 0 0 0-9.381-14.232 31.7 31.7 0 0 0-7.365-5.527 36 36 0 0 0-2.064-.972 129.9 129.9 0 0 1 13.508 58.114c0 28.819-9.393 56.583-26.092 77.884A97.4 97.4 0 0 0 233 127.643"/><path fill="#290042" d="M205.463 59.65A97.27 97.27 0 0 0 135.489 30c-53.94 0-98.142 44.688-97.596 98.628a97.2 97.2 0 0 0 7.768 37.192 27.6 27.6 0 0 0-4.85-.213c-4.377.202-10.568-1.376-13.367-2.158-2.799-.783-5.301 1.458-4.163 4.067v.083c9.69 22.19 31.168 36.636 51.674 36.588q2.046 0 4.08-.213c48.021-3.653 86.127-50.274 86.127-107.06q0-5.373-.462-10.674a2.11 2.11 0 0 0-1.526-1.847 2.11 2.11 0 0 0-2.27.768c-13.283 17.576-32.958 48.483-57.568 32.378-9.488-6.179-14.54-19.475-11.682-33.007 5.124-24.3 33.445-40.324 45.922-35.295.972.391 4.483 1.79 5.681 4.993 1.826 4.886-3.677 8.907-6.488 17.564-3.024 9.37-1.316 19.297.807 19.736 2.372.474 6.345-8.22 16.142-16.13 7.115-5.728 12.476-7.341 15.844-13.425 3.25-5.93-2.538-12.18-.569-12.738s3.807 6.274 9.666 9.666c4.898 2.846 9.263 1.067 15.703.806a42.7 42.7 0 0 1 7.115.546s1.258.178 3.25.593a.736.736 0 0 0 .736-1.198m-72.75 75.239a6.92 6.92 0 0 1 4.448-2.691 5.7 5.7 0 0 1 4.364 1.185c2.372 2.194 1.673 6.44-.367 8.884-1.898 2.253-5.634 3.735-8.231 2.063a5.92 5.92 0 0 1-2.301-4.744 7 7 0 0 1 2.087-4.697"/></svg>
